inst/assets/svg/wi-wind-deg.svg

<?xml version="1.0" encoding="UTF-8"?>
<svg xmlns="http://www.w3.org/2000/svg" xmlns:xlink="http://www.w3.org/1999/xlink" width="30pt" height="30pt" viewBox="0 0 30 30" version="1.1">
<g id="surface1091">
<path style=" stroke:none;fill-rule:nonzero;fill:rgb(0%,0%,0%);fill-opacity:1;" d="M 3.738281 14.5 C 3.738281 12.460938 4.25 10.570313 5.261719 8.839844 C 6.269531 7.109375 7.640625 5.738281 9.371094 4.730469 C 11.101563 3.71875 12.980469 3.21875 15.011719 3.21875 C 16.53125 3.21875 17.988281 3.519531 19.378906 4.109375 C 20.769531 4.699219 21.960938 5.511719 22.96875 6.511719 C 23.980469 7.511719 24.78125 8.710938 25.371094 10.109375 C 25.960938 11.511719 26.261719 12.960938 26.261719 14.5 C 26.261719 16.019531 25.960938 17.480469 25.371094 18.871094 C 24.78125 20.261719 23.96875 21.460938 22.96875 22.460938 C 21.96875 23.460938 20.769531 24.261719 19.378906 24.851563 C 17.988281 25.441406 16.539063 25.738281 15.011719 25.738281 C 13.480469 25.738281 12.011719 25.441406 10.621094 24.851563 C 9.230469 24.261719 8.03125 23.449219 7.019531 22.449219 C 6.011719 21.449219 5.21875 20.25 4.621094 18.871094 C 4.019531 17.488281 3.738281 16.03125 3.738281 14.5 Z M 6.21875 14.5 C 6.21875 16.871094 7.078125 18.929688 8.808594 20.679688 C 10.539063 22.410156 12.601563 23.269531 15.011719 23.269531 C 16.589844 23.269531 18.058594 22.878906 19.398438 22.089844 C 20.738281 21.300781 21.820313 20.238281 22.609375 18.890625 C 23.398438 17.539063 23.800781 16.078125 23.800781 14.5 C 23.800781 12.921875 23.398438 11.449219 22.609375 10.101563 C 21.820313 8.75 20.75 7.679688 19.398438 6.890625 C 18.050781 6.101563 16.589844 5.710938 15.011719 5.710938 C 13.429688 5.710938 11.960938 6.101563 10.621094 6.890625 C 9.28125 7.679688 8.199219 8.75 7.398438 10.101563 C 6.601563 11.449219 6.21875 12.921875 6.21875 14.5 Z M 11.109375 20.351563 L 14.859375 7.238281 C 14.871094 7.140625 14.921875 7.089844 15.011719 7.089844 C 15.101563 7.089844 15.148438 7.140625 15.160156 7.238281 L 18.898438 20.351563 C 18.941406 20.460938 18.929688 20.539063 18.878906 20.601563 C 18.828125 20.660156 18.75 20.660156 18.640625 20.601563 L 15.171875 19.300781 C 15.070313 19.261719 14.96875 19.261719 14.878906 19.300781 L 11.378906 20.601563 C 11.28125 20.660156 11.210938 20.660156 11.171875 20.601563 C 11.128906 20.539063 11.089844 20.449219 11.109375 20.351563 Z M 11.109375 20.351563 "/>
</g>
</svg>

<?xml version="1.0" encoding="utf-8"?>
<!-- Generator: Adobe Illustrator 22.0.1, SVG Export Plug-In . SVG Version: 6.00 Build 0)  -->
<svg version="1.1" id="Layer_1" xmlns="http://www.w3.org/2000/svg" xmlns:xlink="http://www.w3.org/1999/xlink" x="0px" y="0px"
	 viewBox="0 0 30 30" style="enable-background:new 0 0 30 30;" xml:space="preserve">
<path d="M3.74,14.5c0-2.04,0.51-3.93,1.52-5.66s2.38-3.1,4.11-4.11s3.61-1.51,5.64-1.51c1.52,0,2.98,0.3,4.37,0.89
	s2.58,1.4,3.59,2.4s1.81,2.2,2.4,3.6s0.89,2.85,0.89,4.39c0,1.52-0.3,2.98-0.89,4.37s-1.4,2.59-2.4,3.59s-2.2,1.8-3.59,2.39
	s-2.84,0.89-4.37,0.89c-1.53,0-3-0.3-4.39-0.89s-2.59-1.4-3.6-2.4s-1.8-2.2-2.4-3.58S3.74,16.03,3.74,14.5z M6.22,14.5
	c0,2.37,0.86,4.43,2.59,6.18c1.73,1.73,3.79,2.59,6.2,2.59c1.58,0,3.05-0.39,4.39-1.18s2.42-1.85,3.21-3.2s1.19-2.81,1.19-4.39
	s-0.4-3.05-1.19-4.4s-1.86-2.42-3.21-3.21s-2.81-1.18-4.39-1.18s-3.05,0.39-4.39,1.18S8.2,8.75,7.4,10.1S6.22,12.92,6.22,14.5z
	 M11.11,20.35l3.75-13.11c0.01-0.1,0.06-0.15,0.15-0.15s0.14,0.05,0.15,0.15l3.74,13.11c0.04,0.11,0.03,0.19-0.02,0.25
	s-0.13,0.06-0.24,0l-3.47-1.3c-0.1-0.04-0.2-0.04-0.29,0l-3.5,1.3c-0.1,0.06-0.17,0.06-0.21,0S11.09,20.45,11.11,20.35z"/>
</svg>
